logo/spice.svg

<svg fill="#f35d00" viewBox="0 0 24 24" xmlns="http://www.w3.org/2000/svg"><path d="m11.0601.0295996c-5.79014.4054784-10.498705 5.0582804-11.0123206 10.8854004-.1733134 1.9688.1315666 3.8546.8058446 5.5467.166986.4208.356746.8301.570546 1.2228.40988.7689.90452 1.4893 1.46747 2.1447.15434.181.31374.357.48199.5266.54018.5649 1.13476 1.0723 1.77868 1.5199.4997.3494 1.02849.6618 1.58132.9295 1.56615.7664 3.32207 1.1948 5.17407 1.1948 1.8521 0 3.6105-.4284 5.1767-1.1948.5528-.2703 1.0816-.5827 1.5813-.9321.6414-.4437 1.236-.955 1.7761-1.5173.167-.1683.3264-.3443.482-.5266.563-.6567 1.0564-1.3758 1.4675-2.1447.2125-.3927.4023-.802.5706-1.2228.5503-1.3784.8539-2.8856.8539-4.4616-.0051-6.8982-5.8105-12.456309-12.7557-11.9705004zm.8451 22.6928004c-.9931 0-1.95578-.1377-2.86915-.3953-.32133-.0905-.3947-.5177-.12777-.7204.81596-.6185 1.52062-1.1489 2.99692-1.1489s2.1835.5317 2.9995 1.1489l.0063.0051c.2631.2014.1885.6248-.129.714-.9159.2588-1.8799.3966-2.8768.3966zm5.5916-1.6041c-.3391.1976-.7616.2002-1.0943-.0077-.253-.1593-.4908-.3379-.7375-.5253-.8717-.6592-1.8597-1.4051-3.7598-1.4051s-2.8856.7459-3.75723 1.4051c-.26313.1976-.51488.3889-.78433.5547-.31501.1951-.71477.1874-1.02977-.009l-.02783-.0178c-.71982-.4488-.79193-1.46-.16446-2.0338.69579-.6362 1.25115-1.4217 1.77362-2.1612 1.10693-1.571 2.06458-2.9238 3.99-2.9238 1.9254 0 2.8831 1.3528 3.99 2.9238.5313.7523 1.0956 1.5517 1.8078 2.1931.6262.5649.544 1.5722-.1834 1.9942l-.0215.0128zm3.021-2.8281c-.3315.4615-.9653.589-1.4422.2817-.835-.5368-1.4624-1.4242-2.1456-2.3946-1.1448-1.6219-2.4428-3.4606-5.0235-3.4606-2.58075 0-3.87618 1.8387-5.02106 3.4606-.6844.9704-1.31187 1.8591-2.14807 2.3959-.47693.3073-1.11073.1798-1.44344-.283-.33904-.4718-.25175-1.1425.21506-1.4855 1.40801-1.0367 2.37073-2.7848 3.31446-4.4934 1.35742-2.45969 2.63766-4.78035 5.08305-4.78035 2.4453 0 3.7268 2.32194 5.083 4.78035.9425 1.7086 1.9064 3.4554 3.3145 4.4921.4617.3404.5794.9793.2441 1.4459l-.0291.0409zm-2.4226-6.5986c-1.4751-2.6739-2.997-5.43702-6.19-5.43702-3.19301 0-4.71488 2.76312-6.18994 5.43702-.72741 1.3184-1.43205 2.5973-2.30747 3.5001-.57687.5955-1.5826.3455-1.7926-.459-.28464-1.0941-.40355-2.257-.32512-3.4581.36054-5.47905 4.88061-9.8475 10.32673-9.99414 5.9989-.16066 10.9276 4.71018 10.9276 10.71844 0 .941-.1215 1.8539-.3479 2.7248-.21.8072-1.2157 1.0596-1.7939.4629-.8741-.9015-1.5788-2.1791-2.3074-3.4976z"/></svg>

<svg fill="#f35d00" viewBox="0 0 24 24" xmlns="http://www.w3.org/2000/svg" class="sc-51f392f0-0 efncjp"><path d="M11.0601 0.0295996C5.26996 0.435078 0.561395 5.08788 0.0477794 10.915C-0.125534 12.8838 0.179346 14.7696 0.853624 16.4617C1.02061 16.8825 1.21037 17.2918 1.42417 17.6845C1.83405 18.4534 2.32869 19.1738 2.89164 19.8292C3.04598 20.0102 3.20538 20.1862 3.37363 20.3558C3.91381 20.9207 4.50839 21.4281 5.15231 21.8757C5.65201 22.2251 6.1808 22.5375 6.73363 22.8052C8.29978 23.5716 10.0557 24 11.9077 24C13.7598 24 15.5182 23.5716 17.0844 22.8052C17.6372 22.5349 18.166 22.2225 18.6657 21.8731C19.3071 21.4294 19.9017 20.9181 20.4418 20.3558C20.6088 20.1875 20.7682 20.0115 20.9238 19.8292C21.4868 19.1725 21.9802 18.4534 22.3913 17.6845C22.6038 17.2918 22.7936 16.8825 22.9619 16.4617C23.5122 15.0833 23.8158 13.5761 23.8158 12.0001C23.8107 5.1019 18.0053 -0.456209 11.0601 0.0295996ZM11.9052 22.7224C10.9121 22.7224 9.94942 22.5847 9.03605 22.3271C8.71472 22.2366 8.64135 21.8094 8.90828 21.6067C9.72424 20.9882 10.4289 20.4578 11.9052 20.4578C13.3815 20.4578 14.0887 20.9895 14.9047 21.6067L14.911 21.6118C15.1741 21.8132 15.0995 22.2366 14.782 22.3258C13.8661 22.5846 12.9021 22.7224 11.9052 22.7224ZM17.4968 21.1183C17.1577 21.3159 16.7352 21.3185 16.4025 21.1106C16.1495 20.9513 15.9117 20.7727 15.665 20.5853C14.7933 19.9261 13.8053 19.1802 11.9052 19.1802C10.0051 19.1802 9.0196 19.9261 8.14797 20.5853C7.88484 20.7829 7.63309 20.9742 7.36364 21.14C7.04863 21.3351 6.64887 21.3274 6.33387 21.131L6.30604 21.1132C5.58622 20.6644 5.51411 19.6532 6.14158 19.0794C6.83737 18.4432 7.39273 17.6577 7.9152 16.9182C9.02213 15.3472 9.97978 13.9944 11.9052 13.9944C13.8306 13.9944 14.7883 15.3472 15.8952 16.9182C16.4265 17.6705 16.9908 18.4699 17.703 19.1113C18.3292 19.6762 18.247 20.6835 17.5196 21.1055L17.4981 21.1183H17.4968ZM20.5178 18.2902C20.1863 18.7517 19.5525 18.8792 19.0756 18.5719C18.2406 18.0351 17.6132 17.1477 16.93 16.1773C15.7852 14.5554 14.4872 12.7167 11.9065 12.7167C9.32575 12.7167 8.03032 14.5554 6.88544 16.1773C6.20104 17.1477 5.57357 18.0364 4.73737 18.5732C4.26044 18.8805 3.62664 18.753 3.29393 18.2902C2.95489 17.8184 3.04218 17.1477 3.50899 16.8047C4.917 15.768 5.87972 14.0199 6.82345 12.3113C8.18087 9.85161 9.46111 7.53095 11.9065 7.53095C14.3518 7.53095 15.6333 9.85289 16.9895 12.3113C17.932 14.0199 18.8959 15.7667 20.304 16.8034C20.7657 17.1438 20.8834 17.7827 20.5481 18.2493L20.519 18.2902H20.5178ZM18.0952 11.6916C16.6201 9.0177 15.0982 6.25458 11.9052 6.25458C8.71219 6.25458 7.19032 9.0177 5.71526 11.6916C4.98785 13.01 4.28321 14.2889 3.40779 15.1917C2.83092 15.7872 1.82519 15.5372 1.61519 14.7327C1.33055 13.6386 1.21164 12.4757 1.29007 11.2746C1.65061 5.79555 6.17068 1.4271 11.6168 1.28046C17.6157 1.1198 22.5444 5.99064 22.5444 11.9989C22.5444 12.9399 22.4229 13.8528 22.1965 14.7237C21.9865 15.5309 20.9808 15.7833 20.4026 15.1866C19.5285 14.2851 18.8238 13.0075 18.0952 11.689V11.6916Z"></path></svg>
